webapp/src/assets/icons/cloudproviders/aws/networking_content_delivery/peering_connection.svg

<?xml version="1.0" encoding="UTF-8"?>
<svg width="48px" height="48px" viewBox="0 0 48 48" version="1.1" xmlns="http://www.w3.org/2000/svg" xmlns:xlink="http://www.w3.org/1999/xlink">
    <title>Icon-Resource/Networking-and-Content-Delivery/Res_Amazon-VPC_Peering-Connection_48</title>
    <g id="Icon-Resource/Networking-and-Content-Delivery/Res_Amazon-VPC_Peering-Connection_48" stroke="none" stroke-width="1" fill="none" fill-rule="evenodd">
        <path d="M30.6055,25.6368 C30.6055,25.2538 30.6055,24.2358 28.9355,23.8938 C28.4915,23.8028 28.1645,23.4248 28.1375,22.9718 C28.0995,22.3148 27.8295,21.9068 27.4315,21.9068 C27.2485,21.9068 27.0725,22.0008 26.9485,22.1648 C26.7285,22.4588 26.3685,22.6078 26.0015,22.5548 C25.6375,22.4998 25.3335,22.2518 25.2085,21.9068 C25.0125,21.3658 24.7265,20.9008 24.3815,20.5608 C24.0655,20.2468 23.3415,19.6688 22.3165,19.6688 C21.9565,19.6688 21.5585,19.7408 21.1285,19.9188 C20.2085,20.3038 19.4595,21.4568 19.4595,22.4898 C19.4595,22.6118 19.4665,22.7288 19.4805,22.8458 C19.5405,23.3458 19.2185,23.8108 18.7315,23.9338 C17.8465,24.1568 17.3975,24.7208 17.3975,25.6118 L17.4025,25.7578 C17.4475,26.5858 18.4185,27.3468 19.4385,27.3468 L28.8285,27.3468 C30.6055,27.3468 30.6055,26.0598 30.6055,25.6368 L30.6055,25.6368 Z M32.6055,25.6368 C32.6055,28.3178 30.6755,29.3048 28.9765,29.3458 C28.9595,29.3468 28.9425,29.3468 28.9245,29.3468 L19.4385,29.3468 C17.3555,29.3468 15.5085,27.7498 15.4055,25.8598 C15.4005,25.7738 15.3975,25.6968 15.3975,25.6118 C15.3975,24.0768 16.1565,22.8738 17.4645,22.2678 C17.5605,20.5108 18.7725,18.7358 20.3585,18.0738 C22.2795,17.2768 24.3065,17.6718 25.7885,19.1388 C26.0665,19.4128 26.3145,19.7238 26.5315,20.0698 C27.7795,19.5998 29.5565,20.1578 30.0285,22.1208 C31.6755,22.6828 32.6055,23.9348 32.6055,25.6368 L32.6055,25.6368 Z M44.0015,24.0008 C44.0015,12.9728 35.0295,3.9998 24.0015,3.9998 C12.9725,3.9998 4.0005,12.9728 4.0005,24.0008 C4.0005,35.0298 12.9725,44.0018 24.0015,44.0018 C35.0295,44.0018 44.0015,35.0298 44.0015,24.0008 L44.0015,24.0008 Z M46.0015,24.0008 C46.0015,36.1328 36.1325,46.0018 24.0015,46.0018 C11.8695,46.0018 2.0005,36.1328 2.0005,24.0008 C2.0005,11.8688 11.8695,1.9998 24.0015,1.9998 C36.1325,1.9998 46.0015,11.8688 46.0015,24.0008 L46.0015,24.0008 Z M11.6735,20.3638 L10.2595,18.9498 L5.9145,23.2938 C5.7265,23.4818 5.6215,23.7358 5.6215,24.0008 C5.6215,24.2668 5.7265,24.5208 5.9145,24.7078 L10.2595,29.0538 L11.6735,27.6398 L9.0355,25.0008 L13.9905,25.0008 L13.9905,23.0008 L9.0355,23.0008 L11.6735,20.3638 Z M42.0885,23.2938 L37.7435,18.9498 L36.3295,20.3638 L38.9675,23.0008 L33.9855,23.0008 L33.9855,25.0008 L38.9675,25.0008 L36.3295,27.6398 L37.7435,29.0538 L42.0885,24.7078 C42.2765,24.5208 42.3815,24.2668 42.3815,24.0008 C42.3815,23.7358 42.2765,23.4818 42.0885,23.2938 L42.0885,23.2938 Z M25.0015,38.9678 L25.0015,30.9758 L23.0015,30.9758 L23.0015,38.9678 L20.3635,36.3288 L18.9495,37.7428 L23.2935,42.0888 C23.4815,42.2768 23.7355,42.3818 24.0015,42.3818 C24.2665,42.3818 24.5205,42.2768 24.7085,42.0888 L29.0535,37.7428 L27.6395,36.3288 L25.0015,38.9678 Z M20.3635,11.6728 L18.9495,10.2588 L23.2935,5.9138 C23.6845,5.5238 24.3175,5.5238 24.7085,5.9138 L29.0535,10.2588 L27.6395,11.6728 L25.0015,9.0348 L25.0015,16.2748 L23.0015,16.2748 L23.0015,9.0348 L20.3635,11.6728 Z" id="AWS-Amazon-VPC_Peering-connection_Resource-Icon_light-bg" fill="#8C4FFF"></path>
    </g>
</svg>

<svg width="48" height="48" xmlns="http://www.w3.org/2000/svg"><path d="M30.605 25.637c0-.383 0-1.401-1.67-1.743a1.001 1.001 0 0 1-.797-.922c-.039-.657-.309-1.065-.707-1.065a.611.611 0 0 0-.483.258.998.998 0 0 1-1.74-.258c-.195-.541-.481-1.006-.826-1.346-.317-.314-1.04-.892-2.066-.892-.36 0-.758.072-1.188.25-.92.385-1.669 1.538-1.669 2.57 0 .123.008.24.021.357a1 1 0 0 1-.748 1.088c-.886.223-1.334.787-1.334 1.678l.005.146c.045.828 1.016 1.589 2.036 1.589h9.39c1.776 0 1.776-1.287 1.776-1.71Zm2 0c0 2.68-1.93 3.668-3.628 3.709h-9.538c-2.084 0-3.93-1.596-4.034-3.486a4.134 4.134 0 0 1-.007-.248c0-1.535.759-2.738 2.067-3.344.096-1.757 1.308-3.532 2.893-4.194 1.921-.797 3.948-.402 5.43 1.065.279.274.526.585.744.93 1.247-.47 3.024.089 3.497 2.052 1.646.562 2.576 1.814 2.576 3.516ZM44.002 24c0-11.028-8.973-20.001-20-20.001C12.972 4 4 12.973 4 24c0 11.03 8.973 20.002 20.002 20.002 11.027 0 20-8.972 20-20.001Zm2 0c0 12.132-9.87 22-22 22C11.87 46.002 2 36.134 2 24.002S11.87 2 24.002 2c12.13 0 22 9.869 22 22Zm-34.329-3.637L10.26 18.95l-4.345 4.344a1 1 0 0 0 0 1.414l4.345 4.346 1.415-1.414L9.036 25h4.955v-2H9.036l2.638-2.636Zm30.416 2.93-4.346-4.344-1.413 1.414L38.968 23h-4.983v2h4.983l-2.639 2.639 1.414 1.414 4.346-4.346a.996.996 0 0 0 0-1.414ZM25.002 38.968v-7.992h-2v7.992l-2.639-2.64-1.413 1.415 4.344 4.346a1 1 0 0 0 1.415 0l4.345-4.346-1.414-1.414L25 38.968Zm-4.639-27.295-1.413-1.414 4.344-4.345a1.002 1.002 0 0 1 1.415 0l4.345 4.345-1.414 1.414L25 9.035v7.24h-2v-7.24l-2.638 2.638Z" fill="#8C4FFF" fill-rule="evenodd"/></svg>
